X:1
T:Tresves d'amours
T:Clément Janequin
T:Source : Livre premier de 29 chansons nouvelles à 4 parties---Paris---P.Attaignant---1535. Editor : André Vierendeels (25/04/18) Notes : Original clefs : C1, C3, C3, F3 Original note values have been halved Original note values have been quartered in 3-beat measures Editorial accidentals above the staff
T:Tresves d'amours
T:©
T:©
T:©
C:Clément Janequin
Z:©
%%score [ 1 [ 2 3 ] 4 ]
L:1/8
Q:1/4=120
M:2/2
K:F
V:1 treble nm="Soprano" snm="S"
V:2 treble-8 nm="Tenor 1" snm="T 1"
V:3 treble-8 nm="Tenor 2" snm="T 2"
V:4 bass nm="Bass" snm="B"
V:1
 F8 | F4 G4 | A2 A2 c2 c2 | c2 c2 B4 | A3 G FGAF | B4 A2 G2- | GF F4 E2 | F2 A2 A2 G2 | %8
w: Tres-|ves d'a-|mours, c'est u- ne|paix four- ré-||||e, sans fer- me-|
 FEFG A2 A2 | F2 B2 A2 G2 | F4 E2 c2 | c2 B2 c4 | z2 c2 c2 c2 | B2 A2 G3 F | ED E3 DEF | %15
w: té _ _ _ _ et|sans foy as- seu-|ré- e, con-|tre l'ef- fort|de fe- lon-|ne ri- gueur, _|_ _ _ _ _ _|
 G2 A2 A2 G2 |[M:3/4] A4 B2 | B4 B2 | A4 G2 |[M:2/2] F6 E2 | F4 G4 | A2 A2 c2 c2 | c2 c2 B4 | %23
w: * con- tre mer-|cy, plus|for- t'est|la vi-|gueur de|bien ay-|mer, c'est donc for-|ce for- cé-|
 A3 G FGAF | B4 A2 G2- | GF F4 E2 | F4 z2 A2 | F4 G4 | A2 A2 c2 c2 | c2 c2 B4 | A3 G FGAF | %31
w: |||e, de|bien ay-|mer, c'est donc for-|ce for- cé-||
 B4 A2 G2- | GF F4 E2 | F8 |] %34
w: ||e.|
V:2
 z8 | z4 z2 G2 | c2 c2 A2 A2 | F2 F2 z2 G2 | c2 c2 d2 e2 | f2 FG AB c2 | d2 B2 c4 | c4 z4 | %8
w: |C'est|u- ne paix four-|ré- e, c'est|u- ne paix four-|ré- * * * * *||e,|
 z2 f2 f2 e2 | d2 f2 fedc | d4 c2 e2 | f4 g4 | a3 g agfe | d2 c2 c2 B2 | c3 d e2 A2 | %15
w: sans fer- me-|té et sans foy as- seu-|ré- e, con-|tre l'ef-|fort _ _ _ _ _|_ de fe- lon-|ne ri- gueur, con-|
 B2 c2 d3 c/d/ |[M:3/4] e4 g2 | g4 f2 | f4 d2 |[M:2/2] d4 z4 | z4 z2 G2 | c2 c2 A2 A2 | %22
w: tre mer- cy, _ _|_ plus|for- t'est|la vi-|gueur|c'est|donc for- ce for-|
 F2 F2 z2 G2 | c2 c2 d2 e2 | f2 FG AB c2 | d2 B2 c4 | c4 z4 | z4 z2 G2 | c2 c2 A2 A2 | %29
w: cé- e, c'est|donc for- ce for-|cé- * * * * *||e,|c'est|donc for- ce for-|
 F2 F2 z2 G2 | c2 c2 d2 e2 | f2 FG AB c2 | d2 B2 c4 | c8 |] %34
w: cé- e, c'est|donc for- ce for-|cé- * * * * *||e.|
V:3
 F3 G ABcA | d4 c2 B2 | A4 z2 A2 | c2 c2 d2 e2 | f2 FG ABcB | d4 c4 | BAGF G4 | F4 z2 c2 | %8
w: Tres- * * * * *|* ves d'a-|mours, c'est|u- ne paix four-|ré- * * * * * *|||e, sans|
 d2 d2 A2 c2 | d2 d2 c2 B2 | A4 A2 c2 | d2 f3 e e2 | f4 z2 f2 | f2 f2 e2 d2 | c3 B A2 c2 | %15
w: fer- me- té et|sans foy as- seu-|ré- e, con-|tre l'ef- * *|fort de|fe- lon- ne ri-|gueur, _ _ con-|
 d2 f4 ed |[M:3/4] c4 d2 | d4 d2 | c4 B2 |[M:2/2] A3 G ABcA | d3 d c2 B2 | A4 z2 A2 | c2 c2 d2 e2 | %23
w: tre mer- * *|cy, plus|for- t'est|la vi-|gueur _ _ _ _ _|_ de bien ay-|mer, c'est|donc for- ce for-|
 f2 FG ABcA | d4 c4 | BAGF G4 | F3 G ABcA | d3 d c2 B2 | A4 z2 A2 | c2 c2 d2 e2 | f2 FG ABcB | %31
w: cé- * * * * * *|||e _ _ _ _ _|_ de bien ay-|mer, c'est|donc for- ce for-|cé- * * * * * *|
 d4 c4 | BAGF G4 | F8 |] %34
w: ||e.|
V:4
 F,8 | D,4 E,4 | F,6 F,2 | A,2 A,2 G,2 G,2 | F,3 E, D,2 C,2 | B,,C,D,E, F,2 E,2 | D,4 C,4 | %7
w: Tres-|ve d'a-|mours, c'est|u- ne paix four-|ré- * * *||* e,|
 z2 F,2 F,2 E,2 | D,C,D,E, F,2 A,2 | B,2 B,2 F,2 G,2 | D,4 A,2 A,2 | D2 D2 C4 | z2 F,2 F,2 F,2 | %13
w: sans fer- me-|té _ _ _ _ et|sans foy as- seu-|ré- e, con-|tre l'ef- fort|de fe- lon-|
 B,2 F,2 G,2 G,2 | A,3 B, C3 B,/A,/ | G,2 F,2 B,2 B,2 |[M:3/4] A,4 G,2 | G,4 B,2 | F,4 G,2 | %19
w: ne ri- gueur, con-|tre mer- cy, _ _|_ con- tre mer-|cy, plus|for- t'est|la vi-|
[M:2/2] D,3 E, F,G, A,2 | z2 D,2 E,2 E,2 | F,6 F,2 | A,2 A,2 G,2 G,2 | F,3 E, D,2 C,2 | %24
w: gueur _ _ _ _|de bien ay-|mer, c'est|donc for- ce for-|cé- * * *|
 B,,C,D,E, F,2 E,2 | D,4 C,4 | F,4 z2 F,2 | D,4 E,4 | F,6 F,2 | A,2 A,2 G,2 G,2 | F,3 E, D,2 C,2 | %31
w: ||e, de|bien ay-|mer, c'est|donc for- ce for-|cé- * * *|
 B,,C,D,E, F,2 E,2 | D,4 C,4 | F,8 |] %34
w: ||e..|

